X:1
T:Cembalo Sonata Eb Major
T:Cembalo Sonata Eb Major
T:K. 306
T:Domenico Scarlatti (1685-1757)
C:Domenico Scarlatti
%%score { ( 1 4 ) | ( 2 3 ) }
L:1/8
Q:1/4=149
M:2/2
K:Eb
V:1 treble nm="Cembalo" snm="Cbl."
V:4 treble 
V:2 treble 
V:3 treble 
V:1
"^Allegro" e3 d/c/ B4- | Bggf feed | eggf feed | ebbg geec | cAAF FBBA | G4 z2 e2 | d2 c2 B2 A2 | %7
 G4 z2 e2 | d2 c2 B2 A2 | Gggf feed | dccB PB3 =A/B/ | =A4 z2 B2 | =A2 B2 c2 d2 | e2 d2 g2 c2 | %14
 f2 B2{/f} e2 dc | dccB B=AAG | GFF=E EGG^F | ^F=AAG GBBA | =AccB Bdd^c | ^c=eed dffe | %20
 =eggf f=aag | gff=e edd=c | PB3 =A/B/ A x x2 | z2 =B2 ^c2 d2 | =e2 f2 g2 f2 | b2 =e2 =a2 d2 | %26
{/=a} g2 f=e fFFF | =EE=AA d2 B2 | c2 =A2{/c} B2 AG | =AAAA GGcc | f2 d2{/f} e2 dc | %31
 dffB{/c} B=AAB | cffB{/c} B=AAB | %33
[Q:1/4=149] cf[Q:1/4=148]"^.9"{/g}f[Q:1/4=148]"^.7"=e[Q:1/4=148]"^.5" e[Q:1/4=148]"^.1"f[Q:1/4=147]"^.6"{/g}f[Q:1/4=147]e | %34
[Q:1/4=146]"^.2" =e[Q:1/4=145]"^.3"f[Q:1/4=144]"^.2"{/g}f[Q:1/4=142]"^.9"e[Q:1/4=141]"^.5" e[Q:1/4=139]"^.9"f[Q:1/4=138]"^.1"{/g}f[Q:1/4=136]"^.2"e | %35
[Q:1/4=134]{!fermata!=e} !fermata!f6 z2 |[Q:1/4=149] z ccc _dB=ec | f ccc _dB=ec | f2 c2 _d2 _e2 | %39
 f2 c2 _d2 e2 | f2 =A2 B2 _g2 | f2 =A2 B2 c2 | _d2 =A2 B2 _g2 | f2 =A2 B2 c2 | _dfec d=AAB | %45
 c2 =A2 B2 _g2 | f2 =A2 B2 c2 | _d2 =A2 B2 _g2 | f2 =A2 B2 c2 | _dfce Bd=Ac | Bffe e=ddc | %51
 cBB=A AGGF | Fggf feed | dfce Bd=Ac | Bffe eddc | cBB=A AGGF | Fggf feed | dfce Bd=Ac | %58
 B2 b2- bc'ce | d2 b2- bc'ce | %60
[Q:1/4=149] dbge d[Q:1/4=148]"^.9"f[Q:1/4=148]"^.8"=A[Q:1/4=148]"^.7"c | %61
[Q:1/4=148]"^.5" B[Q:1/4=148]"^.1"d[Q:1/4=147]"^.7"G[Q:1/4=147]B[Q:1/4=146]"^.1" D[Q:1/4=144]"^.9"B[Q:1/4=143]"^.3"C[Q:1/4=141]"^.4"=A | %62
[Q:1/4=139]{=A} B6 z2 ::[Q:1/4=149]{c} =B6 c2 | d2 =B4 c2 | d2 =B4 c2 | d2 e2 a2 d2 | %67
 g2 c2{/g} f2 ed | eggf feed | dccB B=AAG | ^F4 z2 G2 | ^F2 G2 =A2 B2 | c2 B2 e2 =A2 | %73
 d2 G2{/d} c2 B=A | B BBB =AAdd | GGcc f2 d2 |{/f} e2 dc d ddd | ccff b2 e2 |{/b} a2 gf gbbe | %79
{/f} edde fbbe |{/f} edde[Q:1/4=149] fb[Q:1/4=148]"^.9"{/c'}b[Q:1/4=148]"^.7"=a | %81
[Q:1/4=148]"^.5" =a[Q:1/4=148]"^.1"b[Q:1/4=147]"^.6"{/c'}b[Q:1/4=147]a[Q:1/4=146]"^.2" a[Q:1/4=145]"^.3"b[Q:1/4=144]"^.2"{/c'}b[Q:1/4=142]"^.9"a | %82
[Q:1/4=141]"^.5" =a[Q:1/4=139]"^.9"b[Q:1/4=138]"^.1"{/c'}b[Q:1/4=136]"^.2"a[Q:1/4=134]{!fermata!a} !fermata!b4 | %83
[Q:1/4=149] z fff _ge=af | b fff _ge=af | b2 f2 _g2 _a2 | b2 f2 _g2 a2 | b2 d2 e2 _c'2 | %88
 b2 d2 e2 f2 | _g2 d2 e2 _c'2 | b2 d2 e2 f2 | _gbaf gede | f2 d2 e2 _c'2 | b2 d2 e2 f2 | %94
 _g2 d2 e2 _c'2 | b2 d2 e2 f2 | _gbfa egdf | ebba a=ggf | feed dccB | Bc'c'b baag | gbfa egdf | %101
 ebba aggf | feed dccB | Bc'c'b baag | gbfa egdf | e4- efFA | G2 e2- efFA | %107
[Q:1/4=149] Ge[Q:1/4=148]"^.9"c[Q:1/4=148]"^.8"A[Q:1/4=148]"^.6" G[Q:1/4=148]"^.4"e[Q:1/4=148]"^.1"F[Q:1/4=147]"^.6"d | %108
[Q:1/4=147]"^.1" e[Q:1/4=146]"^.5"B[Q:1/4=145]"^.8"c[Q:1/4=144]"^.9"A[Q:1/4=144] G[Q:1/4=142]"^.9"e[Q:1/4=141]"^.8"F[Q:1/4=140]"^.4"d | %109
[Q:1/4=139]{d} e6 !fermata!z2 :| %110
V:2
 [EG]6 [FA]2 | G2 [Ac]2 [GB]2 [FA]2 | [GB]2 [Ac]2 [GB]2 [FA]2 | [GB]4 z2[K:bass] G,2 | A,4 B,4 | %5
 E,EED DCCB, | B,A,A,G, G,F,F,E, | E,EED DCCB, | B,A,A,G, G,F,F,E, | E,6 F,2 | G,4 E,4 | %11
 F,FFE EDDC | CB,B,=A, A,G,G,F, | F,F,B,B, E,E,=A,A, | D,D,G,G, C,C,F,F, | B,,4 B,4 | C,4 C2 B,2 | %17
 =A,2 C2 B,2 G,2 | ^F,2 D,2 G2 =F2 | =E2 G2 F2 D2 | ^C2 =A,2 D4 | D,2 =E,2 F,2 F2 | %22
 G,2 G2 =A,=AAG | GFF=E EDDC | C_B,B,=A, A,A,DD | G,G,CC F,F,B,B, | =E,E,=A,A, D,2 D2- | %27
 D2 C2 B,B,GG | =A,A,FF G,G,=EE | F,2 F4 _E2 | DDGG CCFF | B,2 D2 C2 B,2 | F,2 D2 C2 B,2 | %33
 [F,CF]2 [F,CF]2 [G,B,=E]2 [G,B,E]2 | [=A,CF]2 [A,CF]2 [G,B,=E]2 [G,B,E]2 | !fermata![F,,F,]6 z2 | %36
[K:treble] F4 F4 | F4 F4- | F=AAA BB_GG | FF=AA BB_GG | FFFF _GGEE | FF[K:bass] CC _DD=A,A, | %42
 B,B,F,F, _G,G,E,E, | F,F,C,C, _D,D,=A,,A,, | B,,2 E,2 F,2 _G,2 | F,FFF _GGEE | FFCC _DD=A,A, | %47
 B,B,F,F, _G,G,E,E, | F,F,C,C, _D,D,=A,,A,, | B,,2 E,2 F,2 F,,2 | B,,6 C,2 | D,4 E,4 | F,6 =A,2 | %53
 B,2 E,2 F,2 F,,2 | B,,6 C,2 | D,4 E,4 | F,6 =A,2 | B,2 E,2 F,2 F,,2 | B,FDB, =A,2 F,2 | %59
 B,FDB, =A,2 F,2 | B,2 E,2 F,2 F,,2 | G,2 E,2 F,2 F,,2 | [B,,B,]6 z2 :: z _A,A,A, A,A,A,A, | %64
 G,G,G,G, A,A,A,A, | G,G,G,G, A,A,A,A, | G,G,CC F,F,B,B, | E,E,A,A, D,D,G,G, | C4 C,2 D,2 | %69
 E,4 C,4 | D,DDC CB,B,=A, | =A,G,G,^F, F,=E,E,D, | D,D,G,G, C,C,=F,F, | B,,B,,E,E, =A,,A,,D,D, | %74
 G,,2 G4 =F2- | F2 E2 DDGG | CCFF B,2[K:treble] B2- | B2 _A2 GGcc | FFBB E2 G2 | F2 E2 B,2 G2 | %80
 F2 E2 [B,B]2 [B,B]2 | [CE=A]2 [CEA]2 [DFB]2 [DFB]2 | [CE=A]2 [CEA]2 [B,B]2 !fermata!z2 | B4 B4 | %84
 B4 B4- | Bddd ee_cc | BBdd ee_cc | BBBB _cc_AA | BBFF _GGDD | EE[K:bass] B,B, _CCA,A, | %90
 B,B,F,F, _G,G,D,D, | E,2 A,2 B,2 _C2 | B,[K:treble] BBB _ccAA | BBFF _GGDD | %94
 EE[K:bass] B,B, _CCA,A, | B,B,F,F, _G,G,D,D, | E,2 A,2 B,2 B,,2 | E,6 F,2 | G,4 A,4 | B,6 D2 | %100
 E2 A,2 B,2 B,,2 | E,6 F,2 | G,4 A,4 | B,6 D2 | E2 A,2 B,2 B,,2 | E,EGE D2 B,2 | E,EGE D2 B,2 | %107
 E2 A,2 B,2 B,,2 | C2 A,2 B,2 B,,2 | [E,,E,]6 z2 :| %110
V:3
 x8 | x8 | x8 | x6[K:bass] x2 | x8 | x8 | x8 | x8 | x8 | x8 | x8 | x8 | x8 | x8 | x8 | x8 | x8 | %17
 x8 | x4 G,4 | x8 | x8 | x8 | x8 | x8 | x8 | x8 | x8 | x8 | x8 | x8 | x8 | x8 | x8 | x8 | x8 | x8 | %36
[K:treble] x8 | x8 | x8 | x8 | x8 | x2[K:bass] x6 | x8 | x8 | x8 | x8 | x8 | x8 | x8 | x8 | x8 | %51
 x8 | x8 | x8 | x8 | x8 | x8 | x8 | x8 | x8 | x8 | x8 | x8 :: x8 | x8 | x8 | x8 | x8 | x8 | x8 | %70
 x8 | x8 | x8 | x8 | x8 | x8 | x6[K:treble] x2 | x8 | x8 | x8 | x8 | x8 | x8 | x8 | x8 | x8 | x8 | %87
 x8 | x8 | x2[K:bass] x6 | x8 | x8 | x[K:treble] x7 | x8 | x2[K:bass] x6 | x8 | x8 | x8 | x8 | x8 | %100
 x8 | x8 | x8 | x8 | x8 | x8 | x8 | x8 | x8 | x8 :| %110
V:4
 x8 | x8 | x8 | x8 | x8 | x8 | x8 | x8 | x8 | x8 | x8 | x8 | x8 | x8 | x8 | x8 | x8 | x8 | x8 | %19
 x8 | x8 | x8 | x8 | x8 | x8 | x8 | x8 | x8 | x8 | x8 | x8 | x8 | x8 | x8 | x8 | x8 | x5 B2 G | %37
 =A x4 B2 G | =A x5 B2 | =A x5 B2 | =A2 x6 | x8 | x8 | x8 | x8 | x8 | x8 | x8 | x8 | x8 | x8 | x8 | %52
 x8 | x8 | x8 | x8 | x8 | x8 | x8 | x8 | x8 | x8 | x8 :: F8 | G4 F4 | G4 F4 | x8 | x8 | x8 | x8 | %70
 x8 | x8 | x8 | x8 | x8 | x8 | x8 | x8 | x8 | x8 | x8 | x8 | x8 | x5 e2 c | d x4 e2 c | d x5 e2 | %86
 d x5 e2 | d2 x6 | x8 | x8 | x8 | x8 | x8 | x8 | x8 | x8 | x8 | x8 | x8 | x8 | x8 | x8 | x8 | x8 | %104
 x8 | x8 | x8 | x8 | x8 | x8 :| %110

